X: 6607
T: Caulfield's
R: barndance
M: 4/4
K: Gmajor
|:B2 B2 BA GE|D3E DE GA|B2 AB c2 B2|E3F E2 FG|
AG FG A2 D2|GF GA B2 e2|dB cA F2 D2|1 G3A GD GA:|2 G3A (G2 G2)]|
d2 d2 g3e|de dB GA Bc|d2 d2 g2 e2|f3g f2 AB|
cB cd c2 e2|fe fg f2 d2|e3f ed ^ce|d3e dc Bc|
d2 d2 ga ge|de dB GA Bc|d2 d2 g2 d2|(b2 b2) (b2 b2)|
ab ag d2 a2|ga gd B2 e2|dB cA F2 D2|G3A GD GA||

